X: 35
T: No_12_Corn_Dance_Song_(h).krn
N: Derived from No_12_Corn_Dance_Song_(h).krn
%%abc-version 2.0
%%abcx-abcm2ps-target-version 5.9.1 (29 Sep 2008)
%%abc-creator hum2abc beta
%%abcx-conversion-date 2019/03/15 08:38:45
%%humdrum-veritas 2153419370
%%humdrum-veritas-data 43560220
%%linebreak <none>
%%barnumbers 0
L: 1/8
M: 3/4
K: Db clef=bass
[K:clef=bass][M:3/4]B,3/B,/A,2B,/A,A,/ ||  
[M:2/4]A,2F, z/ A,/ | 
A,/F,/E,/G,/ E,/D,/D, | 
E,/D,/D, D,A, | 
F,3/F,/ E,/D,/D, | 
E,/D,/D, D,3/A,,/ | 
D,3/D,/D,2 | 
E,/D,/D, D,/ z/ D, | 
A,2G,E, ||  
[M:3/4]E,3E, D,D, ||  
[M:5/8]D,D,A,,C,A,,/A,,/ ||  
[M:2/4]A,,2A,, z/ A,/ | 
A,/F,/E,/G,/ E,/D,/D, | 
E,/D,/D, D,3/A,,/ | 
D,3/D,/D,2 | 
E,/D,/D, D,/ z/ D, | 
B,3/B,/A,2 ||  
[M:3/4]B,/A,/A,A,2E, z/ A,/ ||  
[M:2/4]A,/F,/E,/G,/ E,/D,/D, | 
E,/D,/D, D,A, | 
G,(3:2:2E,/G, E,/D,/D, | 
E,/D,/D, D,3/A,,/ | 
D,3/D,/D,2 | 
E,/D,/D, D, z ||  
[M:3/4](A,3D,)A,2 | 
(A,3D,)A,2 | 
z4(A,3/B,/) | 
A,4A,G, | 
F,/F,3/F,2A,3/G,/ | 
F,3D, F,3/D,/ | 
D,D, D, z A,3/G,/ | 
F,3D, F,3/D,/ | 
D,D, D, z F,3/D,/ | 
F,2D,2F,D, ||  
[M:2/4]D,D,D,2 | 
C,4 | 
C,2C, z | 
D,4 ||  
[M:3/4]D,4A,3/F,/ | 
F,3D, F,3/D,/ | 
D,D, D, z F,3/D,/ | 
F,3D, F,D, ||  
[M:2/4]D,D,D,2 | 
[M:3/4]A,3D,A,2 | 
A,3D,A,2 |]  



